web/ui/src/assets/svgs/node-library/drop-down.svg

<svg height="16" viewBox="0 0 16 16" width="16" xmlns="http://www.w3.org/2000/svg"><g fill="none"><path d="m0 0h16v16h-16z" fill="#000" opacity="0"/><path d="m11.8022187 6.77953125-3.39943745 3.71734375c-.10156735.1155767-.24798052.1818281-.40184375.1818281-.15387413 0-.30030046-.0662432-.401875-.1818281l-3.39942188-3.71734375c-.16595312-.17528125-.21723437-.43075-.13146875-.65639063.08576563-.22564062.29276563-.38320312.53332813-.40464062h6.7960781c.2414844.02051562.4493906.17714062.5351719.40371875.0867187.2265625.0354375.48109375-.1305313.6573125z" fill="#7b8c9c"/></g></svg>

<?xml version="1.0" encoding="UTF-8"?>
<svg width="16px" height="16px" viewBox="0 0 16 16" version="1.1" xmlns="http://www.w3.org/2000/svg" xmlns:xlink="http://www.w3.org/1999/xlink">
    <title>下拉</title>
    <g id="页面-1" stroke="none" stroke-width="1" fill="none" fill-rule="evenodd">
        <g id="建木自动化-节点库详情" transform="translate(-983.000000, -679.000000)" fill-rule="nonzero">
            <g id="编组-7" transform="translate(921.000000, 677.000000)">
                <g id="下拉" transform="translate(62.000000, 2.000000)">
                    <rect id="矩形" fill="#000000" opacity="0" x="0" y="0" width="16" height="16"></rect>
                    <path d="M11.8022187,6.77953125 L8.40278125,10.496875 C8.3012139,10.6124517 8.15480073,10.6787031 8.0009375,10.6787031 C7.84706337,10.6787031 7.70063704,10.6124599 7.5990625,10.496875 L4.19964062,6.77953125 C4.0336875,6.60425 3.98240625,6.34878125 4.06817187,6.12314062 C4.1539375,5.8975 4.3609375,5.7399375 4.6015,5.7185 L11.3975781,5.7185 C11.6390625,5.73901562 11.8469687,5.89564062 11.93275,6.12221875 C12.0194687,6.34878125 11.9681875,6.6033125 11.8022187,6.77953125 L11.8022187,6.77953125 Z" id="路径" fill="#7B8C9C"></path>
                </g>
            </g>
        </g>
    </g>
</svg>
